src/static/svg/gear.svg

<?xml version="1.0" encoding="UTF-8" standalone="no"?>
<svg
   xmlns:dc="http://purl.org/dc/elements/1.1/"
   xmlns:cc="http://creativecommons.org/ns#"
   xmlns:rdf="http://www.w3.org/1999/02/22-rdf-syntax-ns#"
   xmlns:svg="http://www.w3.org/2000/svg"
   xmlns="http://www.w3.org/2000/svg"
   xmlns:sodipodi="http://sodipodi.sourceforge.net/DTD/sodipodi-0.dtd"
   xmlns:inkscape="http://www.inkscape.org/namespaces/inkscape"
   inkscape:version="1.0 (4035a4fb49, 2020-05-01)"
   sodipodi:docname="gear.svg"
   xml:space="preserve"
   style="enable-background:new 0 0 512 512;"
   viewBox="0 0 512 512"
   y="0px"
   x="0px"
   id="Capa_1"
   version="1.1"><metadata
   id="metadata43"><rdf:RDF><cc:Work
       rdf:about=""><dc:format>image/svg+xml</dc:format><dc:type
         rdf:resource="http://purl.org/dc/dcmitype/StillImage" /></cc:Work></rdf:RDF></metadata><defs
   id="defs41" /><sodipodi:namedview
   inkscape:current-layer="Capa_1"
   inkscape:window-maximized="1"
   inkscape:window-y="-8"
   inkscape:window-x="-8"
   inkscape:cy="401.17493"
   inkscape:cx="155.32846"
   inkscape:zoom="0.89447166"
   showgrid="false"
   id="namedview39"
   inkscape:window-height="837"
   inkscape:window-width="1600"
   inkscape:pageshadow="2"
   inkscape:pageopacity="0"
   guidetolerance="10"
   gridtolerance="10"
   objecttolerance="10"
   borderopacity="1"
   bordercolor="#666666"
   pagecolor="#ffffff" />
<g
   style="fill:#330066;fill-opacity:1"
   id="g6">
	<g
   style="fill:#330066;fill-opacity:1"
   id="g4">
		<path
   style="fill:#330066;fill-opacity:1"
   id="path2"
   d="M500.6,212.6l-59.9-14.7c-3.3-10.5-7.5-20.7-12.6-30.6l30.6-51c3.6-6,2.7-13.5-2.1-18.3L414,55.4    c-4.8-4.8-12.3-5.7-18.3-2.1l-51,30.6c-9.9-5.1-20.1-9.3-30.6-12.6l-14.4-59.9C297.9,4.8,291.9,0,285,0h-60    c-6.9,0-12.9,4.8-14.7,11.4l-14.4,59.9c-10.5,3.3-20.7,7.5-30.6,12.6l-51-30.6c-6-3.6-13.5-2.7-18.3,2.1L53.4,98    c-4.8,4.8-5.7,12.3-2.1,18.3l30.6,51c-5.1,9.9-9.3,20.1-12.6,30.6l-57.9,14.7C4.8,214.1,0,220.1,0,227v60    c0,6.9,4.8,12.9,11.4,14.4l57.9,14.7c3.3,10.5,7.5,20.7,12.6,30.6l-30.6,51c-3.6,6-2.7,13.5,2.1,18.3L96,458.6    c4.8,4.8,12.3,5.7,18.3,2.1l51-30.6c9.9,5.1,20.1,9.3,30.6,12.6l14.4,57.9c1.8,6.6,7.8,11.4,14.7,11.4h60    c6.9,0,12.9-4.8,14.7-11.4l14.4-57.9c10.5-3.3,20.7-7.5,30.6-12.6l51,30.6c6,3.6,13.5,2.7,18.3-2.1l42.6-42.6    c4.8-4.8,5.7-12.3,2.1-18.3l-30.6-51c5.1-9.9,9.3-20.1,12.6-30.6l59.9-14.7c6.6-1.5,11.4-7.5,11.4-14.4v-60    C512,220.1,507.2,214.1,500.6,212.6z M255,332c-41.4,0-75-33.6-75-75c0-41.4,33.6-75,75-75c41.4,0,75,33.6,75,75    C330,298.4,296.4,332,255,332z" />
	</g>
</g>
<g
   id="g8">
</g>
<g
   id="g10">
</g>
<g
   id="g12">
</g>
<g
   id="g14">
</g>
<g
   id="g16">
</g>
<g
   id="g18">
</g>
<g
   id="g20">
</g>
<g
   id="g22">
</g>
<g
   id="g24">
</g>
<g
   id="g26">
</g>
<g
   id="g28">
</g>
<g
   id="g30">
</g>
<g
   id="g32">
</g>
<g
   id="g34">
</g>
<g
   id="g36">
</g>
</svg>

<svg width="512" height="512" viewBox="0 0 512 512" fill="none" xmlns="http://www.w3.org/2000/svg">
<path d="M500.6 212.6L440.7 197.9C437.4 187.4 433.2 177.2 428.1 167.3L458.7 116.3C462.3 110.3 461.4 102.8 456.6 98L414 55.4C409.2 50.6 401.7 49.7 395.7 53.3L344.7 83.9C334.8 78.8 324.6 74.6 314.1 71.3L299.7 11.4C297.9 4.8 291.9 0 285 0H225C218.1 0 212.1 4.8 210.3 11.4L195.9 71.3C185.4 74.6 175.2 78.8 165.3 83.9L114.3 53.3C108.3 49.7 100.8 50.6 96 55.4L53.4 98C48.6 102.8 47.7 110.3 51.3 116.3L81.9 167.3C76.8 177.2 72.6 187.4 69.3 197.9L11.4 212.6C4.8 214.1 0 220.1 0 227V287C0 293.9 4.8 299.9 11.4 301.4L69.3 316.1C72.6 326.6 76.8 336.8 81.9 346.7L51.3 397.7C47.7 403.7 48.6 411.2 53.4 416L96 458.6C100.8 463.4 108.3 464.3 114.3 460.7L165.3 430.1C175.2 435.2 185.4 439.4 195.9 442.7L210.3 500.6C212.1 507.2 218.1 512 225 512H285C291.9 512 297.9 507.2 299.7 500.6L314.1 442.7C324.6 439.4 334.8 435.2 344.7 430.1L395.7 460.7C401.7 464.3 409.2 463.4 414 458.6L456.6 416C461.4 411.2 462.3 403.7 458.7 397.7L428.1 346.7C433.2 336.8 437.4 326.6 440.7 316.1L500.6 301.4C507.2 299.9 512 293.9 512 287V227C512 220.1 507.2 214.1 500.6 212.6ZM255 332C213.6 332 180 298.4 180 257C180 215.6 213.6 182 255 182C296.4 182 330 215.6 330 257C330 298.4 296.4 332 255 332Z" fill="white"/>
</svg>
